X:300
T:Sally Sloane's Jig
T:Sally Sloane's Barn Dance
R:jig 48
C:Trad. ed. Barry Callaghan
S:'Hard Core English' page 74B
O:England
B:Hard Core English ISBN 978 085418 201 5
Z:PJHeadford 2008
M:6/8
L:1/8
Q:1/8=140
K:D
|:A|FAd FAd|GBd GBd|FAd dcd|f2e e2A|\
FAd FAd|GBd GBd|FAd dcd|e2c d2:|
|:e|f3 def|f2e e2f|g2e cde|efe d2e|\
f3 def|f2e e2f|g2e cde|efe d2:|
|:z|A3 F2G|A3 F2G|AFA dAd|fed cBA|\
G3 E2F|G3 E2F|GBA GFE|1F3 G2:|2D3 D2|]
W:In Leadley, so has been returned from Australia by Sally. May have
W:started as Trip to Cottingham.

